source/img/logo-cat-tablet.svg

<svg width="174" height="50" viewBox="0 0 174 50" fill="none" xmlns="http://www.w3.org/2000/svg">
<path d="M51.2082 19.0509C49.734 15.4472 47.3597 12.3007 44.3221 9.92484C41.2845 7.54897 37.6896 6.02673 33.8957 5.50983C30.1017 4.99293 26.2413 5.49942 22.699 6.97882C19.1567 8.45823 16.0563 10.8589 13.7068 13.9415C11.3573 17.0242 9.84068 20.6812 9.30816 24.5481C8.77564 28.415 9.24578 32.3568 10.6717 35.9806C12.0977 39.6044 14.4296 42.7836 17.4352 45.2015C20.4408 47.6194 24.015 49.1915 27.8017 49.7611C27.3057 47.9377 26.8011 45.9223 26.3564 43.7848C27.6501 44.641 29.0118 45.3852 30.4271 46.0096C30.4271 46.0096 30.5298 47.8941 30.6666 49.9967C32.1959 50.0236 33.7237 49.8862 35.2247 49.5866C35.186 49.3674 35.186 49.1428 35.2247 48.9236C35.4727 47.2921 36.1569 44.3519 36.2937 42.4587C37.28 41.5176 38.1167 40.4256 38.7738 39.2219L38.7225 39.6058C38.2521 43.3224 37.2686 47.2921 36.67 48.3914C36.4762 48.7553 36.2377 49.0924 35.9602 49.3947C39.0558 48.6538 41.9564 47.235 44.461 45.2366C46.9656 43.2381 49.0141 40.7079 50.4647 37.8213C51.9152 34.9347 52.733 31.7607 52.8614 28.5196C52.9898 25.2784 52.4257 22.0475 51.2082 19.0509ZM49.9511 22.3575C49.5748 22.7326 48.7966 22.9856 48.6683 21.8514C48.54 20.7172 48.5058 19.9233 48.5058 19.9233C48.5058 19.9233 46.8553 16.9308 46.2396 16.8959C45.6238 16.861 41.2538 19.9233 40.0993 21.2582C39.0987 22.3836 38.9021 22.3051 38.9021 24.2856C38.9021 25.7775 39.0902 31.4135 38.9876 35.7234L32.0178 37.6166C29.8271 38.258 27.5993 38.7592 25.3473 39.1172L24.4921 34.0308H24.3724L22.1746 22.5407C22.1746 22.5407 18.9163 21.2843 17.719 20.9441C17.1569 20.6932 16.5361 20.6116 15.9299 20.709C15.3238 20.8064 14.7576 21.0787 14.2983 21.4937C13.8297 21.9123 13.4549 22.429 13.1996 23.0087C12.9443 23.5883 12.8144 24.2172 12.8188 24.8527C12.9996 25.2582 13.1372 25.6823 13.2293 26.1177C13.2721 26.5365 12.2031 26.4929 11.5189 26.4929C10.8348 26.4929 10.7322 25.2365 11.2709 23.7621C11.6912 22.6284 12.2122 21.5362 12.8274 20.4991C13.29 19.5728 13.8868 18.7228 14.5976 17.9778C14.5976 17.9778 14.7173 17.6811 15.6666 17.7684C16.6158 17.8556 21.8924 18.1435 21.8924 18.1435L21.9351 16.1631C27.6703 15.3552 33.4546 14.9645 39.2441 14.994C39.2441 15.5262 39.2441 16.0584 39.2441 16.5906C41.437 15.5696 43.7984 14.9777 46.2054 14.8457C46.3341 14.8423 46.4617 14.8717 46.5767 14.9311C46.6916 14.9905 46.7903 15.078 46.8638 15.1859C47.1546 15.5611 48.9249 17.8033 49.1301 18.1261C49.705 18.9642 50.2277 19.8384 50.6951 20.7434C50.5349 21.3165 50.2835 21.8588 49.9511 22.3487V22.3575Z" fill="#FDC305"/>
<path d="M48.2839 17.0181C48.6859 17.5415 49.0365 18.0039 49.1391 18.1435C49.714 18.9817 50.2367 19.8558 50.7041 20.7609C50.5414 21.3151 50.2931 21.8393 49.9687 22.3138C49.5924 22.689 48.8142 22.942 48.6859 21.8078C48.5576 20.6736 48.5063 19.9233 48.5063 19.9233C48.5063 19.9233 46.8558 16.9308 46.24 16.8959C45.6243 16.861 41.2543 19.9233 40.0998 21.2582C39.0992 22.3836 38.9025 22.3051 38.9025 24.2856C38.9025 25.5942 39.0479 30.0874 39.0137 34.0832C40.5616 34.2577 42.8364 34.6939 43.5205 35.7234C43.5205 35.7234 43.2725 29.4592 50.1996 32.7396C50.1996 32.7396 50.439 24.1983 60 26.3882C56.7498 22.4952 52.7655 19.3086 48.2839 17.0181Z" fill="#F06351"/>
<path d="M39.2788 14.994C39.3136 10.1595 38.9128 5.332 38.0815 0.572359C38.0815 0.572359 37.9533 -0.561827 37.3375 0.362971C36.8294 1.46856 36.4837 2.64443 36.3113 3.85277C32.6555 3.61347 28.986 3.71276 25.3478 4.14941C24.6465 1.75017 23.4493 0.659604 22.8763 0.947513C22.3033 1.23542 22.2349 3.80915 22.2349 3.80915L21.9527 16.1631C27.6936 15.3544 33.4836 14.9637 39.2788 14.994Z" fill="#F06351"/>
<path d="M38.7821 39.2219C38.8933 38.2884 38.9531 37.0495 38.9874 35.6798L32.0179 37.573C29.8283 38.2291 27.6005 38.7449 25.3478 39.1172L26.297 43.4795C26.297 43.5755 26.297 43.6714 26.3569 43.7674C27.6505 44.6235 29.0121 45.3677 30.4273 45.9921C32.4957 44.9834 34.4656 43.777 36.3107 42.3889V42.4413C37.2925 41.5048 38.1262 40.4188 38.7821 39.2219Z" fill="#E55645"/>
<path d="M27.366 12.2632C27.3233 12.176 28.2212 12.8565 28.5718 13.0659C28.9224 13.2752 29.0934 13.4323 29.0934 13.5806C29.0934 13.7289 28.8711 13.8772 28.5632 13.8772C28.2554 13.8772 27.7765 13.7725 27.7081 13.6504C27.6397 13.5282 28.2212 13.6504 28.5119 13.6504H28.7599C28.2334 13.2574 27.7642 12.7904 27.366 12.2632Z" fill="black"/>
<path d="M33.7799 12.3592C33.7799 12.3592 32.9247 13.4759 32.8478 13.5283C32.7708 13.5806 32.7024 13.8249 33.0103 13.7813C33.3637 13.7274 33.7125 13.6458 34.0535 13.537C34.1476 13.4846 34.1134 13.3625 33.9509 13.3799C33.7884 13.3974 33.3694 13.4236 33.0958 13.4759L33.8227 12.3679C33.8227 12.3679 33.8483 12.2632 33.7799 12.3592Z" fill="black"/>
<path d="M31.0946 17.6898C31.491 17.5117 31.8186 17.205 32.0267 16.8174C32.2661 16.2416 32.0267 16.0235 31.6504 15.9449C31.1328 15.8486 30.5986 15.9545 30.1539 16.2416C29.8204 16.5644 29.8632 16.8785 30.1539 17.114C30.4428 17.3451 30.7588 17.5386 31.0946 17.6898Z" fill="black"/>
<path d="M30.7866 18.7891C30.6884 18.987 30.555 19.1645 30.3932 19.3126C30.1497 19.5125 29.8503 19.6286 29.5381 19.6441C29.0673 19.6913 28.5965 19.5541 28.2212 19.2603C28.0488 19.1574 27.8954 19.0245 27.7679 18.8677C27.6824 18.7726 27.5772 18.6981 27.4601 18.6495C27.4601 18.6495 28.1014 22.2353 29.6578 22.8111C31.2142 23.3869 31.5049 22.1481 31.5477 21.8165C31.5998 20.8236 31.3553 19.8379 30.8465 18.9898C30.8465 18.7281 30.8294 18.9026 30.7866 18.7891Z" fill="#F06351"/>
<path d="M29.3328 19.7837C28.9326 19.725 28.5483 19.5842 28.2029 19.3698C27.8575 19.1554 27.5583 18.8718 27.3233 18.5361C27.3022 18.5121 27.2906 18.4811 27.2906 18.4489C27.2906 18.4167 27.3022 18.3856 27.3233 18.3616C27.3344 18.35 27.3477 18.3408 27.3624 18.3345C27.3771 18.3282 27.3928 18.325 27.4088 18.325C27.4247 18.325 27.4405 18.3282 27.4551 18.3345C27.4698 18.3408 27.4831 18.35 27.4943 18.3616C27.7059 18.6645 27.9744 18.9215 28.2841 19.1177C28.5939 19.3139 28.9387 19.4454 29.2986 19.5045C29.5834 19.4827 29.859 19.3922 30.1028 19.2406C30.3466 19.0889 30.5517 18.8804 30.7011 18.6321L30.8208 18.4663L30.9063 18.6583C30.9063 18.6583 31.2313 19.3213 31.7615 19.3562C32.2916 19.3911 32.6679 18.9898 33.1553 18.2308C33.1735 18.203 33.2017 18.1837 33.2338 18.1772C33.2659 18.1706 33.2992 18.1774 33.3264 18.1959C33.3536 18.2144 33.3725 18.2432 33.3789 18.2759C33.3853 18.3086 33.3787 18.3426 33.3606 18.3704C32.7905 19.2254 32.2517 19.6354 31.7444 19.6005C31.5482 19.574 31.3604 19.503 31.1947 19.3928C31.029 19.2826 30.8895 19.136 30.7866 18.9636C30.6193 19.202 30.402 19.3993 30.1505 19.5412C29.899 19.683 29.6197 19.7659 29.3328 19.7837Z" fill="black"/>
<path d="M31.009 31.5269C32.78 31.5269 34.2158 30.0621 34.2158 28.2552C34.2158 26.4483 32.78 24.9835 31.009 24.9835C29.2379 24.9835 27.8022 26.4483 27.8022 28.2552C27.8022 30.0621 29.2379 31.5269 31.009 31.5269Z" fill="#FDC305"/>
<path d="M35.259 25.5942L32.5824 26.7372L33.5658 21.8253L27.1522 30.3404L29.8288 29.1975L28.8454 34.1181L35.259 25.5942ZM28.9395 28.9357L32.4969 24.2158L31.8042 27.7056L33.5145 26.9902L29.9314 31.7188L30.6241 28.229L28.9395 28.9357Z" fill="#111111"/>
<path d="M27.7422 27.6532C28.2712 27.6532 28.7 27.2157 28.7 26.6761C28.7 26.1364 28.2712 25.6989 27.7422 25.6989C27.2133 25.6989 26.7845 26.1364 26.7845 26.6761C26.7845 27.2157 27.2133 27.6532 27.7422 27.6532Z" fill="#111111"/>
<path d="M33.3181 31.1954C33.6912 31.1954 33.9937 30.8868 33.9937 30.5061C33.9937 30.1255 33.6912 29.8169 33.3181 29.8169C32.945 29.8169 32.6425 30.1255 32.6425 30.5061C32.6425 30.8868 32.945 31.1954 33.3181 31.1954Z" fill="#111111"/>
<path d="M34.1391 29.3022C34.3044 29.3022 34.4384 29.1654 34.4384 28.9968C34.4384 28.8282 34.3044 28.6914 34.1391 28.6914C33.9738 28.6914 33.8398 28.8282 33.8398 28.9968C33.8398 29.1654 33.9738 29.3022 34.1391 29.3022Z" fill="#111111"/>
<path d="M39.236 16.5731C37.6923 17.9928 36.2384 19.511 34.8831 21.1186C33.5331 22.7145 32.0097 24.1487 30.3421 25.3936C30.1539 24.9312 28.9481 24.0675 28.9481 24.0675C28.9481 24.0675 26.2628 22.1917 24.5011 20.7172C23.5488 19.908 22.6516 19.0336 21.8158 18.0999L20.1055 18.0039C22.5744 21.6832 26.1915 24.4015 30.3677 25.7164C31.1032 25.5942 33.1727 24.0849 34.7206 22.8548C36.5519 21.2659 38.2669 19.5426 39.8518 17.6986C40.2778 17.1821 40.6081 16.5908 40.8267 15.9537C39.8518 16.2852 39.236 16.5731 39.236 16.5731Z" fill="#F06351"/>
<path d="M22.175 22.5407C22.175 22.5407 18.9168 21.2843 17.7195 20.9441C17.1573 20.6932 16.5365 20.6116 15.9304 20.709C15.3243 20.8064 14.7581 21.0787 14.2987 21.4937C13.8301 21.9123 13.4554 22.429 13.2001 23.0087C12.9448 23.5883 12.8149 24.2172 12.8193 24.8527C13 25.2582 13.1377 25.6823 13.2298 26.1177C13.2725 26.5365 12.2035 26.4929 11.5194 26.4929C10.8352 26.4929 10.7326 25.2365 11.2714 23.7621C11.6917 22.6284 12.2127 21.5362 12.8278 20.4991C8.16705 22.9769 0 28.7002 0 28.7002C2.33611 28.5564 4.68014 28.6265 7.00399 28.9096C11.4937 29.372 11.2799 32.9839 11.2799 32.9839C12.8591 32.5398 14.4684 32.2161 16.0946 32.0155C17.9076 31.8933 18.0359 33.8651 18.0359 33.8651L18.4892 37.2327C19.1774 36.4731 19.9364 35.7835 20.7554 35.1738C21.8111 34.3116 23.1553 33.9046 24.5011 34.0396L22.175 22.5407Z" fill="#F06351"/>
<path d="M74.2184 32.4708C73.3349 31.1952 72.9125 29.6692 73.0177 28.1337V21.8663C72.9063 20.3195 73.3223 18.7802 74.2013 17.4875C74.996 16.4903 76.3539 15.9945 78.275 16C80.1961 16.0056 81.4969 16.4429 82.1773 17.312C83.0069 18.389 83.4117 19.7206 83.3179 21.0641V22.5348H79.7673V20.9388C79.7625 20.5188 79.7253 20.0998 79.6558 19.6853C79.6129 19.3852 79.4715 19.1067 79.2527 18.8914C79.1177 18.7786 78.9609 18.6931 78.7916 18.64C78.6222 18.5869 78.4437 18.5673 78.2664 18.5822C78.0119 18.5452 77.7518 18.5855 77.5217 18.6977C77.2915 18.8098 77.1023 18.9883 76.98 19.209C76.7545 19.7958 76.6552 20.4216 76.6884 21.0474V29.0028C76.6493 29.6327 76.7639 30.2628 77.0229 30.8412C77.1466 31.0499 77.3302 31.2188 77.5512 31.3272C77.7721 31.4356 78.0207 31.4787 78.2664 31.4513C78.5079 31.4845 78.754 31.4427 78.9696 31.3316C79.1852 31.2206 79.3593 31.046 79.4671 30.8329C79.6746 30.2449 79.7648 29.6238 79.733 29.0028V27.3315H83.2836V28.7772C83.3881 30.1405 83.0164 31.4982 82.2287 32.6295C81.474 33.5487 80.1704 34 78.3179 34C76.4654 34 75.016 33.4986 74.2184 32.4708Z" fill="#111111"/>
<path d="M88.1555 16.2424H92.2207L95.6513 33.7911H92.2722L91.6633 29.9137H88.8159L88.1298 33.766H84.6993L88.1555 16.2424ZM91.2859 27.7075L90.2053 20.6546L89.1332 27.7075H91.2859Z" fill="#111111"/>
<path d="M98.2848 18.883H95.506V16.2424H104.7V18.883H101.955V33.766H98.2762L98.2848 18.883Z" fill="#111111"/>
<path d="M111.913 16.2424H118.886V18.0641H114.426V23.8552H118.045V25.585H114.426V32.0111H118.929V33.766H111.913V16.2424Z" fill="#444444"/>
<path d="M120.953 16.2424H122.669L127.814 27.883V16.2424H129.907V33.7911H128.303L123.157 21.8245V33.766H121.03L120.953 16.2424Z" fill="#444444"/>
<path d="M132.678 16.2424H139.642V18.0641H135.182V23.8552H138.836V25.585H135.216V32.0111H139.693V33.766H132.678V16.2424Z" fill="#444444"/>
<path d="M141.709 16.2424H145.328C146.754 16.1306 148.175 16.5188 149.333 17.3371C150.191 18.0641 150.611 19.2507 150.611 20.897C150.611 23.1254 149.871 24.4875 148.39 24.9833L150.963 33.766H148.527L146.169 25.5432H144.222V33.766H141.709V16.2424ZM145.14 23.7633C145.966 23.8411 146.792 23.6146 147.455 23.1282C147.725 22.8174 147.926 22.4561 148.047 22.0667C148.168 21.6772 148.206 21.2678 148.158 20.8635C148.176 20.2966 148.091 19.7311 147.91 19.1922C147.836 18.9936 147.722 18.8113 147.575 18.6563C147.427 18.5013 147.25 18.3766 147.052 18.2897C146.495 18.0672 145.895 17.9673 145.294 17.9973H144.188V23.7967L145.14 23.7633Z" fill="#444444"/>
<path d="M153.991 32.4708C153.171 31.1225 152.791 29.5634 152.902 28V22.1504C152.872 21.0216 153.017 19.8949 153.33 18.8078C153.578 17.9906 154.105 17.2802 154.823 16.7939C155.69 16.2848 156.693 16.0403 157.704 16.092C158.358 16.0314 159.018 16.1107 159.637 16.3243C160.256 16.5379 160.82 16.8807 161.289 17.3287C162.112 18.4519 162.501 19.8223 162.387 21.1978V21.8496H160.029V21.3064C160.045 20.6568 159.993 20.0072 159.874 19.3677C159.796 18.9579 159.564 18.5913 159.222 18.3399C158.777 18.0839 158.263 17.9645 157.747 17.9973C157.187 17.9506 156.63 18.1184 156.195 18.4652C155.839 18.7941 155.607 19.2294 155.535 19.702C155.426 20.3903 155.377 21.0864 155.389 21.7828V28.2925C155.321 29.2817 155.494 30.2725 155.895 31.1839C156.128 31.4641 156.423 31.6888 156.758 31.8408C157.094 31.9928 157.461 32.068 157.831 32.0608C158.2 32.0535 158.564 31.9639 158.893 31.7989C159.222 31.6339 159.507 31.3978 159.728 31.1086C160.142 30.1448 160.321 29.1009 160.252 28.0585V26.8217H157.97V25.0919H162.516V33.766H160.963L160.715 31.7521C160.518 32.4212 160.095 33.0058 159.514 33.4109C158.933 33.816 158.229 34.0177 157.516 33.9833C156.845 34.0409 156.17 33.9325 155.554 33.668C154.938 33.4036 154.4 32.9918 153.991 32.4708Z" fill="#444444"/>
<path d="M167.731 27.5822L163.846 16.2424H166.178L168.931 24.6992L171.642 16.2424H174L170.141 27.5822V33.766H167.739L167.731 27.5822Z" fill="#444444"/>
</svg>

<svg xmlns="http://www.w3.org/2000/svg" width="174" height="50" fill="none"><path fill="#FDC305" d="M51.2 19.05a22.3 22.3 0 0 0-6.88-9.13A21.5 21.5 0 0 0 22.7 6.97a21.95 21.95 0 0 0-9 6.97 22.76 22.76 0 0 0-3.04 22.04 22.31 22.31 0 0 0 6.78 9.22c3 2.42 6.57 4 10.36 4.56-.5-1.82-1-3.84-1.44-5.98 1.29.86 2.65 1.6 4.07 2.23 0 0 .1 1.88.24 3.99 1.53.02 3.05-.11 4.55-.41a1.9 1.9 0 0 1 0-.67c.25-1.63.94-4.57 1.07-6.46.99-.94 1.83-2.03 2.48-3.24l-.05.39c-.47 3.71-1.45 7.68-2.05 8.78-.2.37-.43.7-.71 1 3.1-.74 6-2.16 8.5-4.15 2.5-2 4.55-4.53 6-7.42a22.73 22.73 0 0 0 .75-18.77Zm-1.25 3.3c-.38.38-1.15.64-1.28-.5a30.8 30.8 0 0 1-.16-1.93s-1.65-2.99-2.27-3.02c-.62-.04-4.99 3.02-6.14 4.36-1 1.12-1.2 1.05-1.2 3.03 0 1.49.19 7.12.09 11.43l-6.97 1.9a53.8 53.8 0 0 1-6.67 1.5l-.86-5.09h-.12l-2.2-11.49s-3.25-1.26-4.45-1.6a3.16 3.16 0 0 0-3.42.55 4.42 4.42 0 0 0-1.48 3.36c.18.4.32.83.4 1.27.05.42-1.02.37-1.7.37-.69 0-.79-1.25-.25-2.73.42-1.13.94-2.22 1.56-3.26.46-.93 1.06-1.78 1.77-2.52 0 0 .12-.3 1.07-.21.95.09 6.22.37 6.22.37l.05-1.98c5.73-.8 11.51-1.2 17.3-1.17v1.6a18.95 18.95 0 0 1 6.97-1.74.76.76 0 0 1 .65.34c.3.37 2.06 2.61 2.27 2.94.57.83 1.1 1.7 1.57 2.61a5.5 5.5 0 0 1-.75 1.6v.02Z"/><path fill="#F06351" d="m48.28 17.02.86 1.12c.57.84 1.1 1.72 1.56 2.62a5.5 5.5 0 0 1-.73 1.55c-.38.38-1.16.63-1.28-.5-.13-1.14-.18-1.89-.18-1.89s-1.65-2.99-2.27-3.02c-.62-.04-4.99 3.02-6.14 4.36-1 1.12-1.2 1.05-1.2 3.03 0 1.3.15 5.8.11 9.8 1.55.17 3.83.6 4.51 1.63 0 0-.25-6.26 6.68-2.98 0 0 .24-8.54 9.8-6.35a37.5 37.5 0 0 0-11.72-9.37ZM39.28 15c.03-4.84-.37-9.67-1.2-14.43 0 0-.13-1.13-.74-.2-.51 1.1-.86 2.27-1.03 3.48a59.42 59.42 0 0 0-10.96.3c-.7-2.4-1.9-3.49-2.47-3.2-.58.29-.65 2.86-.65 2.86l-.28 12.35c5.74-.8 11.53-1.2 17.33-1.17Z"/><path fill="#E55645" d="M38.78 39.22c.11-.93.17-2.17.2-3.54l-6.96 1.9a53.8 53.8 0 0 1-6.67 1.54l.95 4.36c0 .1 0 .2.06.29 1.3.85 2.65 1.6 4.07 2.22 2.07-1 4.04-2.21 5.88-3.6v.05c.98-.94 1.82-2.02 2.47-3.22Z"/><path fill="#000" d="M27.37 12.26c-.05-.08.85.6 1.2.8.35.22.52.37.52.52 0 .15-.22.3-.53.3-.3 0-.78-.1-.85-.23-.07-.12.51 0 .8 0h.25c-.53-.4-1-.86-1.4-1.39ZM33.78 12.36s-.86 1.12-.93 1.17c-.08.05-.15.3.16.25.35-.05.7-.13 1.04-.24.1-.06.06-.18-.1-.16-.16.02-.58.04-.85.1l.72-1.11s.03-.1-.04-.01ZM31.1 17.69c.4-.18.72-.49.93-.87.24-.58 0-.8-.38-.88-.52-.1-1.05.01-1.5.3-.33.32-.29.64 0 .87.3.24.6.43.94.58Z"/><path fill="#F06351" d="M30.79 18.79a1.46 1.46 0 0 1-1.25.86c-.47.04-.94-.1-1.32-.39-.17-.1-.32-.24-.45-.4a.85.85 0 0 0-.31-.21s.64 3.59 2.2 4.16c1.55.58 1.84-.66 1.89-1 .05-.99-.2-1.97-.7-2.82 0-.26-.02-.09-.06-.2Z"/><path fill="#000" d="M29.33 19.78a2.96 2.96 0 0 1-2-1.24.13.13 0 0 1 0-.18.12.12 0 0 1 .13-.03l.03.03a2.78 2.78 0 0 0 1.8 1.14 1.78 1.78 0 0 0 1.41-.87l.12-.16.09.19s.32.66.85.7c.53.03.9-.37 1.4-1.13a.12.12 0 0 1 .17-.03c.02.01.04.04.05.08 0 .03 0 .06-.02.09-.57.86-1.1 1.27-1.62 1.23a1.3 1.3 0 0 1-.95-.64 1.95 1.95 0 0 1-1.46.82Z"/><path fill="#FDC305" d="M31 31.53c1.78 0 3.22-1.47 3.22-3.27 0-1.81-1.44-3.28-3.21-3.28a3.24 3.24 0 0 0-3.2 3.28c0 1.8 1.43 3.27 3.2 3.27Z"/><path fill="#111" d="m35.26 25.6-2.68 1.14.99-4.91-6.42 8.51 2.68-1.14-.98 4.92 6.4-8.53Zm-6.32 3.34 3.56-4.72-.7 3.49 1.71-.72-3.58 4.73.7-3.5-1.7.72ZM27.74 27.65c.53 0 .96-.43.96-.97a.97.97 0 0 0-.96-.98.97.97 0 0 0-.96.98c0 .54.43.97.96.97ZM33.32 31.2c.37 0 .67-.31.67-.7 0-.37-.3-.68-.67-.68-.38 0-.68.3-.68.69 0 .38.3.69.68.69ZM34.14 29.3a.3.3 0 0 0 .3-.3.3.3 0 0 0-.3-.3.3.3 0 0 0-.3.3c0 .17.13.3.3.3Z"/><path fill="#F06351" d="M39.24 16.57c-1.55 1.42-3 2.94-4.36 4.55a27.48 27.48 0 0 1-4.54 4.27c-.19-.46-1.4-1.32-1.4-1.32s-2.68-1.88-4.44-3.35c-.95-.81-1.85-1.69-2.68-2.62L20.1 18a19.39 19.39 0 0 0 10.26 7.72c.73-.13 2.8-1.64 4.35-2.87a49.8 49.8 0 0 0 5.13-5.15c.43-.52.76-1.1.98-1.75-.98.34-1.6.62-1.6.62ZM22.18 22.54s-3.26-1.26-4.46-1.6a3.16 3.16 0 0 0-3.42.55 4.42 4.42 0 0 0-1.48 3.36c.18.4.32.83.41 1.27.04.42-1.03.37-1.71.37-.68 0-.79-1.25-.25-2.73.42-1.13.94-2.22 1.56-3.26C8.17 22.98 0 28.7 0 28.7a38.4 38.4 0 0 1 7 .21c4.5.46 4.28 4.07 4.28 4.07 1.58-.44 3.19-.76 4.81-.96 1.82-.13 1.95 1.85 1.95 1.85l.45 3.36c.69-.76 1.45-1.45 2.27-2.06a5.11 5.11 0 0 1 3.74-1.13l-2.32-11.5Z"/><path fill="#111" d="M74.22 32.47a6.8 6.8 0 0 1-1.2-4.34v-6.26a6.9 6.9 0 0 1 1.18-4.38c.8-1 2.15-1.5 4.08-1.49 1.92 0 3.22.44 3.9 1.31a5.51 5.51 0 0 1 1.14 3.75v1.47h-3.55v-1.6c0-.41-.04-.83-.11-1.24-.05-.3-.19-.58-.4-.8a1.35 1.35 0 0 0-1-.3 1.28 1.28 0 0 0-1.28.62 4.46 4.46 0 0 0-.3 1.84V29a3.9 3.9 0 0 0 .34 1.84 1.3 1.3 0 0 0 1.24.61c.25.03.5 0 .71-.12.22-.1.39-.28.5-.5.2-.59.3-1.2.26-1.83v-1.67h3.55v1.45a5.94 5.94 0 0 1-1.05 3.85c-.76.92-2.06 1.37-3.91 1.37s-3.3-.5-4.1-1.53ZM88.16 16.24h4.06l3.43 17.55h-3.38l-.6-3.88h-2.85l-.69 3.86H84.7l3.46-17.53Zm3.13 11.47-1.08-7.06-1.08 7.06h2.16ZM98.28 18.88h-2.77v-2.64h9.19v2.64h-2.75v14.89h-3.67V18.88Z"/><path fill="#444" d="M111.91 16.24h6.98v1.82h-4.46v5.8h3.61v1.73h-3.61V32h4.5v1.76h-7.02V16.24ZM120.95 16.24h1.72l5.14 11.64V16.24h2.1V33.8h-1.6l-5.15-11.97v11.95h-2.13l-.08-17.53ZM132.68 16.24h6.96v1.82h-4.46v5.8h3.66v1.73h-3.62V32h4.47v1.76h-7.01V16.24ZM141.7 16.24h3.63a6.12 6.12 0 0 1 4 1.1c.86.72 1.28 1.91 1.28 3.56 0 2.23-.74 3.59-2.22 4.08l2.57 8.79h-2.43l-2.36-8.23h-1.95v8.23h-2.51V16.24Zm3.44 7.52c.83.08 1.65-.15 2.32-.63a2.96 2.96 0 0 0 .7-2.27 4.77 4.77 0 0 0-.25-1.67 1.58 1.58 0 0 0-.86-.9 4.18 4.18 0 0 0-1.76-.3h-1.1v5.8l.95-.03ZM154 32.47a7.57 7.57 0 0 1-1.1-4.47v-5.85c-.03-1.13.12-2.26.43-3.34.25-.82.77-1.53 1.5-2.02.86-.5 1.86-.75 2.87-.7a4.62 4.62 0 0 1 3.59 1.24 5.74 5.74 0 0 1 1.1 3.87v.65h-2.36v-.54c.01-.65-.04-1.3-.16-1.94a1.66 1.66 0 0 0-.65-1.03 2.63 2.63 0 0 0-1.47-.34 2.2 2.2 0 0 0-1.56.47c-.35.32-.58.76-.66 1.23-.1.69-.15 1.39-.14 2.08v6.51c-.07 1 .1 1.98.5 2.9a2.42 2.42 0 0 0 1.94.87 2.48 2.48 0 0 0 1.9-.95c.41-.97.6-2 .52-3.05v-1.24h-2.28V25.1h4.55v8.68h-1.56l-.25-2.02c-.2.67-.62 1.26-1.2 1.66-.58.4-1.28.6-2 .57a4.09 4.09 0 0 1-3.52-1.5ZM167.73 27.58l-3.88-11.34h2.33l2.75 8.46 2.71-8.46H174l-3.86 11.34v6.19h-2.4v-6.19Z"/></svg>
